X:2214
T:Let Christians all with one accord rejoice
T:Lhig Chaarjyn Chreest
T:O Cre ta Dooinney 
C:Traditional
O:Isle of Man
Z:Clague collection
B:Kiaull Vannin #214
N:Given in Journal of Folk Song Society (vol. not given) as "O cre ta Dooinney" See also KV64. Rests added.
M:4/4 
L:1/4
K:D 
z/E GF|E3 B|c B/A/ GA|B3 z/|z/ EGF|E3 B|c B/A/ G A|B3 z/|
z/ BcB|A3 B|cc d/c/B|A3 z/ |z/ EGA|B3 c|B B/A/ GF|E3 z/||

